X:1319
T:Polska från Mora
S:Efter Olov Flodin
Z:[[http://www.bluerose.karenlmyers.org/IncipitsPolskaAlvdalen3.html|Karen Myers (#1057)]]
Z:Upptecknad 12/2001
M:3/4
L:1/8
R:Polska
O:Älvdalen, Dalarna
K:Am
N:B-delen går i D-dur. Passar för Polska från Älvdalen.
A2 a2- a(b | (3a2) g2 e2 c2- | c>(e g)e ^f(g/a/) | (3^f2 e2 c2 A2 :|
|: [K:D]AB/c/d2 d>c | d>e fe/d/c2 | c>e ga f>d | ecd4 :|
(:musicend:)

(:music:)
